images/11949114.svg

<?xml version="1.0" encoding="UTF-8"?>
<svg xmlns="http://www.w3.org/2000/svg" xmlns:xlink="http://www.w3.org/1999/xlink" width="300pt" height="300pt" viewBox="0 0 300 300" version="1.1">
<defs>
<g>
<symbol overflow="visible" id="glyph0-0">
<path style="stroke:none;" d="M 0.546875 1.9375 L 0.546875 -7.75 L 6.046875 -7.75 L 6.046875 1.9375 Z M 1.171875 1.328125 L 5.4375 1.328125 L 5.4375 -7.140625 L 1.171875 -7.140625 Z M 1.171875 1.328125 "/>
</symbol>
<symbol overflow="visible" id="glyph0-1">
<path style="stroke:none;" d="M 4.328125 -7.28125 C 3.546875 -7.28125 2.921875 -6.984375 2.453125 -6.390625 C 1.992188 -5.804688 1.765625 -5.007812 1.765625 -4 C 1.765625 -2.988281 1.992188 -2.1875 2.453125 -1.59375 C 2.921875 -1.007812 3.546875 -0.71875 4.328125 -0.71875 C 5.117188 -0.71875 5.742188 -1.007812 6.203125 -1.59375 C 6.660156 -2.1875 6.890625 -2.988281 6.890625 -4 C 6.890625 -5.007812 6.660156 -5.804688 6.203125 -6.390625 C 5.742188 -6.984375 5.117188 -7.28125 4.328125 -7.28125 Z M 4.328125 -8.171875 C 5.453125 -8.171875 6.351562 -7.789062 7.03125 -7.03125 C 7.707031 -6.28125 8.046875 -5.269531 8.046875 -4 C 8.046875 -2.738281 7.707031 -1.726562 7.03125 -0.96875 C 6.351562 -0.21875 5.453125 0.15625 4.328125 0.15625 C 3.203125 0.15625 2.300781 -0.21875 1.625 -0.96875 C 0.957031 -1.71875 0.625 -2.726562 0.625 -4 C 0.625 -5.269531 0.957031 -6.28125 1.625 -7.03125 C 2.300781 -7.789062 3.203125 -8.171875 4.328125 -8.171875 Z M 4.328125 -8.171875 "/>
</symbol>
<symbol overflow="visible" id="glyph0-2">
<path style="stroke:none;" d="M 1.078125 -8.015625 L 2.546875 -8.015625 L 6.09375 -1.3125 L 6.09375 -8.015625 L 7.15625 -8.015625 L 7.15625 0 L 5.6875 0 L 2.125 -6.703125 L 2.125 0 L 1.078125 0 Z M 1.078125 -8.015625 "/>
</symbol>
<symbol overflow="visible" id="glyph0-3">
<path style="stroke:none;" d="M 1.078125 -8.015625 L 2.171875 -8.015625 L 2.171875 -4.734375 L 6.109375 -4.734375 L 6.109375 -8.015625 L 7.1875 -8.015625 L 7.1875 0 L 6.109375 0 L 6.109375 -3.8125 L 2.171875 -3.8125 L 2.171875 0 L 1.078125 0 Z M 1.078125 -8.015625 "/>
</symbol>
</g>
</defs>
<g id="surface30517">
<rect x="0" y="0" width="300" height="300" style="fill:rgb(100%,100%,100%);fill-opacity:1;stroke:none;"/>
<path style="fill:none;stroke-width:1.2;stroke-linecap:butt;stroke-linejoin:miter;stroke:rgb(0%,0%,0%);stroke-opacity:1;stroke-miterlimit:10;" d="M 264.75 164.222656 L 258.015625 176.3125 "/>
<path style="fill:none;stroke-width:1.2;stroke-linecap:butt;stroke-linejoin:miter;stroke:rgb(100%,0%,0%);stroke-opacity:1;stroke-miterlimit:10;" d="M 258.015625 176.3125 L 251.28125 188.398438 "/>
<path style="fill:none;stroke-width:1.2;stroke-linecap:butt;stroke-linejoin:miter;stroke:rgb(100%,0%,0%);stroke-opacity:1;stroke-miterlimit:10;" d="M 251.28125 188.398438 L 237.441406 188.613281 "/>
<path style="fill:none;stroke-width:1.2;stroke-linecap:butt;stroke-linejoin:miter;stroke:rgb(0%,0%,0%);stroke-opacity:1;stroke-miterlimit:10;" d="M 237.441406 188.613281 L 223.605469 188.824219 "/>
<path style=" stroke:none;fill-rule:nonzero;fill:rgb(100%,100%,100%);fill-opacity:1;" d="M 247.28125 181.898438 L 256.28125 181.898438 L 256.28125 194.898438 L 247.28125 194.898438 Z M 247.28125 181.898438 "/>
<g style="fill:rgb(100%,0%,0%);fill-opacity:1;">
  <use xlink:href="#glyph0-1" x="247.28125" y="191.799805"/>
</g>
<path style="fill:none;stroke-width:1.2;stroke-linecap:butt;stroke-linejoin:miter;stroke:rgb(0%,0%,0%);stroke-opacity:1;stroke-miterlimit:10;" d="M 223.605469 188.824219 L 209.402344 165.070312 "/>
<path style="fill:none;stroke-width:1.2;stroke-linecap:butt;stroke-linejoin:miter;stroke:rgb(0%,0%,0%);stroke-opacity:1;stroke-miterlimit:10;" d="M 216.597656 189.789062 L 205.234375 170.789062 "/>
<path style="fill:none;stroke-width:1.2;stroke-linecap:butt;stroke-linejoin:miter;stroke:rgb(0%,0%,0%);stroke-opacity:1;stroke-miterlimit:10;" d="M 210.136719 213.003906 L 223.605469 188.824219 "/>
<path style="fill:none;stroke-width:1.2;stroke-linecap:butt;stroke-linejoin:miter;stroke:rgb(0%,0%,0%);stroke-opacity:1;stroke-miterlimit:10;" d="M 209.402344 165.070312 L 181.726562 165.492188 "/>
<path style="fill:none;stroke-width:1.2;stroke-linecap:butt;stroke-linejoin:miter;stroke:rgb(0%,0%,0%);stroke-opacity:1;stroke-miterlimit:10;" d="M 181.726562 165.492188 L 168.257812 189.671875 "/>
<path style="fill:none;stroke-width:1.2;stroke-linecap:butt;stroke-linejoin:miter;stroke:rgb(0%,0%,0%);stroke-opacity:1;stroke-miterlimit:10;" d="M 186.070312 171.082031 L 175.292969 190.425781 "/>
<path style="fill:none;stroke-width:1.2;stroke-linecap:butt;stroke-linejoin:miter;stroke:rgb(0%,0%,0%);stroke-opacity:1;stroke-miterlimit:10;" d="M 168.257812 189.671875 L 182.460938 213.425781 "/>
<path style="fill:none;stroke-width:1.2;stroke-linecap:butt;stroke-linejoin:miter;stroke:rgb(0%,0%,0%);stroke-opacity:1;stroke-miterlimit:10;" d="M 168.257812 189.671875 L 140.582031 190.097656 "/>
<path style="fill:none;stroke-width:1.2;stroke-linecap:butt;stroke-linejoin:miter;stroke:rgb(0%,0%,0%);stroke-opacity:1;stroke-miterlimit:10;" d="M 182.460938 213.425781 L 210.136719 213.003906 "/>
<path style="fill:none;stroke-width:1.2;stroke-linecap:butt;stroke-linejoin:miter;stroke:rgb(0%,0%,0%);stroke-opacity:1;stroke-miterlimit:10;" d="M 185.128906 206.871094 L 207.269531 206.535156 "/>
<path style="fill:none;stroke-width:1.2;stroke-linecap:butt;stroke-linejoin:miter;stroke:rgb(0%,0%,0%);stroke-opacity:1;stroke-miterlimit:10;" d="M 140.582031 190.097656 L 133.480469 178.21875 "/>
<path style="fill:none;stroke-width:1.2;stroke-linecap:butt;stroke-linejoin:miter;stroke:rgb(0%,0%,100%);stroke-opacity:1;stroke-miterlimit:10;" d="M 133.480469 178.21875 L 126.378906 166.34375 "/>
<path style="fill:none;stroke-width:1;stroke-linecap:butt;stroke-linejoin:miter;stroke:rgb(0%,0%,0%);stroke-opacity:1;stroke-miterlimit:10;" d="M 137.246094 140.886719 L 137.246094 140.886719 M 135.609375 143.402344 L 136.566406 143.808594 M 133.96875 145.914062 L 135.886719 146.730469 M 132.328125 148.425781 L 135.207031 149.652344 M 130.6875 150.9375 L 134.523438 152.574219 M 129.050781 153.449219 L 133.84375 155.496094 M 127.410156 155.960938 L 133.164062 158.417969 M 125.769531 158.472656 L 132.484375 161.339844 M 124.132812 160.988281 L 131.800781 164.261719 M 122.492188 163.5 L 131.121094 167.183594 M 121.886719 164.425781 L 130.871094 168.261719 "/>
<path style="fill:none;stroke-width:1.2;stroke-linecap:butt;stroke-linejoin:miter;stroke:rgb(0%,0%,0%);stroke-opacity:1;stroke-miterlimit:10;" d="M 98.8125 163.871094 L 112.597656 165.105469 "/>
<path style="fill:none;stroke-width:1.2;stroke-linecap:butt;stroke-linejoin:miter;stroke:rgb(0%,0%,100%);stroke-opacity:1;stroke-miterlimit:10;" d="M 112.597656 165.105469 L 126.378906 166.34375 "/>
<path style=" stroke:none;fill-rule:nonzero;fill:rgb(100%,100%,100%);fill-opacity:1;" d="M 122.378906 159.84375 L 130.378906 159.84375 L 130.378906 172.84375 L 122.378906 172.84375 Z M 122.378906 159.84375 "/>
<g style="fill:rgb(0%,0%,100%);fill-opacity:1;">
  <use xlink:href="#glyph0-2" x="122.378906" y="169.745117"/>
</g>
<path style="fill:none;stroke-width:1.2;stroke-linecap:butt;stroke-linejoin:miter;stroke:rgb(0%,0%,0%);stroke-opacity:1;stroke-miterlimit:10;" d="M 137.246094 140.886719 L 163.4375 131.933594 "/>
<path style="fill:none;stroke-width:1.2;stroke-linecap:butt;stroke-linejoin:miter;stroke:rgb(0%,0%,0%);stroke-opacity:1;stroke-miterlimit:10;" d="M 116.398438 122.6875 L 137.246094 140.886719 "/>
<path style="fill:none;stroke-width:1.2;stroke-linecap:butt;stroke-linejoin:miter;stroke:rgb(0%,0%,0%);stroke-opacity:1;stroke-miterlimit:10;" d="M 163.4375 131.933594 L 168.773438 104.777344 "/>
<path style="fill:none;stroke-width:1.2;stroke-linecap:butt;stroke-linejoin:miter;stroke:rgb(0%,0%,0%);stroke-opacity:1;stroke-miterlimit:10;" d="M 168.773438 104.777344 L 147.925781 86.574219 "/>
<path style=" stroke:none;fill-rule:nonzero;fill:rgb(0%,0%,0%);fill-opacity:1;" d="M 168.773438 104.777344 L 196.542969 100.441406 L 193.382812 91.199219 Z M 168.773438 104.777344 "/>
<path style="fill:none;stroke-width:1.2;stroke-linecap:butt;stroke-linejoin:miter;stroke:rgb(0%,0%,0%);stroke-opacity:1;stroke-miterlimit:10;" d="M 147.925781 86.574219 L 121.738281 95.527344 "/>
<path style="fill:none;stroke-width:1;stroke-linecap:butt;stroke-linejoin:miter;stroke:rgb(0%,0%,0%);stroke-opacity:1;stroke-miterlimit:10;" d="M 116.398438 122.6875 L 116.398438 122.6875 M 117.480469 119.886719 L 116.457031 119.6875 M 118.5625 117.089844 L 116.515625 116.6875 M 119.640625 114.289062 L 116.574219 113.6875 M 120.722656 111.492188 L 116.632812 110.6875 M 121.804688 108.695312 L 116.691406 107.6875 M 122.886719 105.894531 L 116.746094 104.6875 M 123.96875 103.097656 L 116.804688 101.691406 M 125.050781 100.300781 L 116.863281 98.691406 M 126.132812 97.5 L 116.921875 95.691406 M 126.53125 96.46875 L 116.945312 94.585938 "/>
<path style="fill:none;stroke-width:1.2;stroke-linecap:butt;stroke-linejoin:miter;stroke:rgb(0%,0%,0%);stroke-opacity:1;stroke-miterlimit:10;" d="M 116.398438 122.6875 L 92.644531 136.890625 "/>
<path style="fill:none;stroke-width:1.2;stroke-linecap:butt;stroke-linejoin:miter;stroke:rgb(0%,0%,0%);stroke-opacity:1;stroke-miterlimit:10;" d="M 92.644531 136.890625 L 98.8125 163.871094 "/>
<path style="fill:none;stroke-width:1;stroke-linecap:butt;stroke-linejoin:miter;stroke:rgb(0%,0%,0%);stroke-opacity:1;stroke-miterlimit:10;" d="M 98.8125 163.871094 L 98.8125 163.871094 M 96.476562 165.753906 L 97.261719 166.441406 M 94.140625 167.636719 L 95.710938 169.007812 M 91.804688 169.519531 L 94.160156 171.578125 M 89.46875 171.402344 L 92.613281 174.144531 M 87.132812 173.285156 L 91.0625 176.714844 M 84.796875 175.167969 L 89.511719 179.28125 M 82.460938 177.050781 L 87.960938 181.851562 M 80.125 178.933594 L 86.410156 184.417969 M 77.789062 180.816406 L 84.859375 186.988281 M 76.929688 181.507812 L 84.289062 187.933594 "/>
<path style="fill:none;stroke-width:1.2;stroke-linecap:butt;stroke-linejoin:miter;stroke:rgb(0%,0%,0%);stroke-opacity:1;stroke-miterlimit:10;" d="M 77.527344 185.773438 L 82.007812 198.867188 "/>
<path style="fill:none;stroke-width:1.2;stroke-linecap:butt;stroke-linejoin:miter;stroke:rgb(100%,0%,0%);stroke-opacity:1;stroke-miterlimit:10;" d="M 82.007812 198.867188 L 86.484375 211.964844 "/>
<path style="fill:none;stroke-width:1.2;stroke-linecap:butt;stroke-linejoin:miter;stroke:rgb(0%,0%,0%);stroke-opacity:1;stroke-miterlimit:10;" d="M 83.691406 183.667969 L 88.167969 196.761719 "/>
<path style="fill:none;stroke-width:1.2;stroke-linecap:butt;stroke-linejoin:miter;stroke:rgb(100%,0%,0%);stroke-opacity:1;stroke-miterlimit:10;" d="M 88.167969 196.761719 L 92.644531 209.855469 "/>
<path style="fill:none;stroke-width:1.2;stroke-linecap:butt;stroke-linejoin:miter;stroke:rgb(0%,0%,0%);stroke-opacity:1;stroke-miterlimit:10;" d="M 80.609375 184.722656 L 67.03125 182.050781 "/>
<path style="fill:none;stroke-width:1.2;stroke-linecap:butt;stroke-linejoin:miter;stroke:rgb(100%,0%,0%);stroke-opacity:1;stroke-miterlimit:10;" d="M 67.03125 182.050781 L 53.453125 179.382812 "/>
<path style=" stroke:none;fill-rule:nonzero;fill:rgb(100%,100%,100%);fill-opacity:1;" d="M 85.566406 204.410156 L 94.566406 204.410156 L 94.566406 217.410156 L 85.566406 217.410156 Z M 85.566406 204.410156 "/>
<g style="fill:rgb(100%,0%,0%);fill-opacity:1;">
  <use xlink:href="#glyph0-1" x="85.566406" y="214.311523"/>
</g>
<path style="fill:none;stroke-width:1.2;stroke-linecap:butt;stroke-linejoin:miter;stroke:rgb(100%,0%,0%);stroke-opacity:1;stroke-miterlimit:10;" d="M 53.453125 179.382812 L 44.351562 189.808594 "/>
<path style="fill:none;stroke-width:1.2;stroke-linecap:butt;stroke-linejoin:miter;stroke:rgb(0%,0%,0%);stroke-opacity:1;stroke-miterlimit:10;" d="M 44.351562 189.808594 L 35.25 200.230469 "/>
<path style=" stroke:none;fill-rule:nonzero;fill:rgb(100%,100%,100%);fill-opacity:1;" d="M 49.453125 172.882812 L 58.453125 172.882812 L 58.453125 185.882812 L 49.453125 185.882812 Z M 49.453125 172.882812 "/>
<g style="fill:rgb(100%,0%,0%);fill-opacity:1;">
  <use xlink:href="#glyph0-1" x="49.453125" y="182.78418"/>
</g>
<path style=" stroke:none;fill-rule:nonzero;fill:rgb(100%,100%,100%);fill-opacity:1;" d="M 186.964844 89.320312 L 203.964844 89.320312 L 203.964844 102.320312 L 186.964844 102.320312 Z M 186.964844 89.320312 "/>
<g style="fill:rgb(100%,0%,0%);fill-opacity:1;">
  <use xlink:href="#glyph0-1" x="186.964844" y="99.22168"/>
  <use xlink:href="#glyph0-3" x="195.365234" y="99.22168"/>
</g>
</g>
</svg>

<svg xmlns="http://www.w3.org/2000/svg" xmlns:xlink="http://www.w3.org/1999/xlink" width="300pt" height="300pt" viewBox="0 0 300 300"><defs><symbol overflow="visible"><path d="M.547 1.938V-7.75h5.5v9.688zm.625-.61h4.266v-8.47H1.171zm0 0"/></symbol><symbol overflow="visible" id="a"><path d="M4.328-7.28c-.78 0-1.406.296-1.875.89-.46.585-.687 1.382-.687 2.39 0 1.012.226 1.813.687 2.406.47.586 1.094.875 1.875.875.79 0 1.414-.288 1.875-.874.457-.593.688-1.394.688-2.406 0-1.008-.23-1.805-.687-2.39-.46-.594-1.086-.89-1.875-.89zm0-.892c1.125 0 2.024.383 2.703 1.14C7.708-6.28 8.048-5.27 8.048-4c0 1.262-.34 2.273-1.016 3.03C6.353-.22 5.454.157 4.33.157S2.3-.22 1.625-.97c-.668-.75-1-1.757-1-3.03 0-1.27.332-2.28 1-3.03.676-.76 1.578-1.142 2.703-1.142zm0 0"/></symbol><symbol overflow="visible" id="b"><path d="M1.078-8.016h1.47l3.546 6.704v-6.704h1.062V0H5.688L2.124-6.703V0H1.078zm0 0"/></symbol><symbol overflow="visible" id="c"><path d="M1.078-8.016h1.094v3.282H6.11v-3.282h1.077V0H6.11v-3.813H2.17V0H1.078zm0 0"/></symbol></defs><g><path fill="#fff" d="M0 0h300v300H0z"/><path d="M264.75 164.223l-6.734 12.09" stroke-width="1.2" stroke="#000" stroke-miterlimit="10" fill="none"/><path d="M258.016 176.313l-6.735 12.085M251.28 188.398l-13.84.215" stroke-width="1.2" stroke="#f00" stroke-miterlimit="10" fill="none"/><path d="M237.44 188.613l-13.835.21" stroke-width="1.2" stroke="#000" stroke-miterlimit="10" fill="none"/><path d="M247.28 181.898h9v13h-9zm0 0" fill="#fff"/><use xlink:href="#a" x="247.281" y="191.8" fill="#f00"/><path d="M223.605 188.824l-14.203-23.754M216.598 189.79l-11.364-19M210.137 213.004l13.468-24.18M209.402 165.07l-27.675.422M181.727 165.492l-13.47 24.18M186.07 171.082l-10.777 19.344M168.258 189.672l14.203 23.754M168.258 189.672l-27.676.426M182.46 213.426l27.677-.422M185.13 206.87l22.14-.335M140.582 190.098l-7.102-11.88" stroke-width="1.2" stroke="#000" stroke-miterlimit="10" fill="none"/><path d="M133.48 178.22l-7.1-11.876" stroke-width="1.2" stroke="#00f" stroke-miterlimit="10" fill="none"/><path d="M137.246 140.887m-1.637 2.515l.956.407m-2.597 2.104l1.917.816m-3.56 1.696l2.88 1.226m-4.52 1.286l3.836 1.636m-5.472.875l4.794 2.046m-6.434.465l5.754 2.458m-7.394.055l6.714 2.867m-8.35-.352l7.667 3.274m-9.308-.762l8.63 3.684m-9.235-2.758l8.984 3.836" stroke="#000" stroke-miterlimit="10" fill="none"/><path d="M98.813 163.87l13.785 1.235" stroke-width="1.2" stroke="#000" stroke-miterlimit="10" fill="none"/><path d="M112.598 165.105l13.78 1.24" stroke-width="1.2" stroke="#00f" stroke-miterlimit="10" fill="none"/><path d="M122.38 159.844h8v13h-8zm0 0" fill="#fff"/><use xlink:href="#b" x="122.379" y="169.745" fill="#00f"/><path d="M137.246 140.887l26.19-8.953M116.398 122.688l20.848 18.2M163.438 131.934l5.335-27.157M168.773 104.777l-20.847-18.203" stroke-width="1.2" stroke="#000" stroke-miterlimit="10" fill="none"/><path d="M168.773 104.777l27.77-4.336-3.16-9.24zm0 0"/><path d="M147.926 86.574l-26.188 8.953" stroke-width="1.2" stroke="#000" stroke-miterlimit="10" fill="none"/><path d="M116.398 122.688m1.082-2.8l-1.023-.2m2.106-2.598l-2.047-.403m3.125-2.398l-3.066-.603m4.15-2.195l-4.09-.805m5.17-1.992l-5.113-1.007m6.197-1.793l-6.14-1.207m7.222-1.59l-7.165-1.407m8.246-1.39l-8.187-1.61m9.27-1.19l-9.21-1.81m9.608.78l-9.585-1.884" stroke="#000" stroke-miterlimit="10" fill="none"/><path d="M116.398 122.688L92.645 136.89M92.645 136.89l6.168 26.98" stroke-width="1.2" stroke="#000" stroke-miterlimit="10" fill="none"/><path d="M98.813 163.87m-2.336 1.884l.785.687m-3.12 1.197l1.57 1.37m-3.907.513l2.355 2.058m-4.69-.176l3.143 2.743m-5.48-.86l3.93 3.43m-6.266-1.547l4.715 4.113m-7.05-2.23l5.5 4.802m-7.837-2.918l6.285 5.484m-8.62-3.602l7.07 6.172m-7.93-5.48l7.36 6.426" stroke="#000" stroke-miterlimit="10" fill="none"/><path d="M77.527 185.773l4.48 13.094" stroke-width="1.2" stroke="#000" stroke-miterlimit="10" fill="none"/><path d="M82.008 198.867l4.476 13.098" stroke-width="1.2" stroke="#f00" stroke-miterlimit="10" fill="none"/><path d="M83.69 183.668l4.478 13.094" stroke-width="1.2" stroke="#000" stroke-miterlimit="10" fill="none"/><path d="M88.168 196.762l4.477 13.093" stroke-width="1.2" stroke="#f00" stroke-miterlimit="10" fill="none"/><path d="M80.61 184.723l-13.58-2.672" stroke-width="1.2" stroke="#000" stroke-miterlimit="10" fill="none"/><path d="M67.03 182.05l-13.577-2.667" stroke-width="1.2" stroke="#f00" stroke-miterlimit="10" fill="none"/><path d="M85.566 204.41h9v13h-9zm0 0" fill="#fff"/><use xlink:href="#a" x="85.566" y="214.312" fill="#f00"/><path d="M53.453 179.383l-9.1 10.426" stroke-width="1.2" stroke="#f00" stroke-miterlimit="10" fill="none"/><path d="M44.352 189.81l-9.102 10.42" stroke-width="1.2" stroke="#000" stroke-miterlimit="10" fill="none"/><path d="M49.453 172.883h9v13h-9zm0 0" fill="#fff"/><use xlink:href="#a" x="49.453" y="182.784" fill="#f00"/><path d="M186.965 89.32h17v13h-17zm0 0" fill="#fff"/><g fill="#f00"><use xlink:href="#a" x="186.965" y="99.222"/><use xlink:href="#c" x="195.365" y="99.222"/></g></g></svg>
